resources/svg/next-o.svg

<svg width="15" height="15" viewBox="0 0 15 15" fill="none" xmlns="http://www.w3.org/2000/svg">
<path d="M1.5 2.5L1.79062 2.09313C1.63821 1.98427 1.43774 1.96971 1.27121 2.05542C1.10467 2.14112 1 2.31271 1 2.5H1.5ZM1.5 12.5H1C1 12.6873 1.10467 12.8589 1.27121 12.9446C1.43774 13.0303 1.63821 13.0157 1.79062 12.9069L1.5 12.5ZM8.5 7.5L8.79062 7.90687C8.92202 7.81301 9 7.66148 9 7.5C9 7.33852 8.92202 7.18699 8.79062 7.09313L8.5 7.5ZM1 2.5V12.5H2V2.5H1ZM1.79062 12.9069L8.79062 7.90687L8.20938 7.09313L1.20938 12.0931L1.79062 12.9069ZM8.79062 7.09313L1.79062 2.09313L1.20938 2.90687L8.20938 7.90687L8.79062 7.09313ZM13 2V13H14V2H13Z" fill="black"/>
</svg>

<svg viewBox="0 0 15 15" fill="none" xmlns="http://www.w3.org/2000/svg" fill="currentColor"><path d="M1.5 2.5l.29-.407A.5.5 0 001 2.5h.5zm0 10H1a.5.5 0 00.79.407L1.5 12.5zm7-5l.29.407a.5.5 0 000-.814L8.5 7.5zM1 2.5v10h1v-10H1zm.79 10.407l7-5-.58-.814-7 5 .58.814zm7-5.814l-7-5-.58.814 7 5 .58-.814zM13 2v11h1V2h-1z" fill="currentColor"/></svg>
